svg/Pictogram/pictograms-nps-golfing.svg

<?xml version="1.0" encoding="UTF-8" standalone="no"?>
<!-- Generator: Adobe Illustrator 13.0.2, SVG Export Plug-In . SVG Version: 6.00 Build 14948)  -->
<svg
   xmlns:dc="http://purl.org/dc/elements/1.1/"
   xmlns:cc="http://creativecommons.org/ns#"
   xmlns:rdf="http://www.w3.org/1999/02/22-rdf-syntax-ns#"
   xmlns:svg="http://www.w3.org/2000/svg"
   xmlns="http://www.w3.org/2000/svg"
   xmlns:sodipodi="http://sodipodi.sourceforge.net/DTD/sodipodi-0.dtd"
   xmlns:inkscape="http://www.inkscape.org/namespaces/inkscape"
   version="1.1"
   id="Layer_1"
   x="0px"
   y="0px"
   width="123.547px"
   height="123.539px"
   viewBox="-0.258 -0.548 123.547 123.539"
   style="enable-background:new -0.258 -0.548 123.547 123.539;"
   xml:space="preserve"
   sodipodi:version="0.32"
   inkscape:version="0.46"
   sodipodi:docname="pictograms-nps-golfing-2.svg"
   inkscape:output_extension="org.inkscape.output.svg.inkscape"><metadata
   id="metadata17898"><rdf:RDF><cc:Work
       rdf:about=""><dc:format>image/svg+xml</dc:format><dc:type
         rdf:resource="http://purl.org/dc/dcmitype/StillImage" /></cc:Work></rdf:RDF></metadata><defs
   id="defs17896"><inkscape:perspective
     sodipodi:type="inkscape:persp3d"
     inkscape:vp_x="0 : 61.769501 : 1"
     inkscape:vp_y="0 : 1000 : 0"
     inkscape:vp_z="123.547 : 61.769501 : 1"
     inkscape:persp3d-origin="61.773499 : 41.179667 : 1"
     id="perspective17900" /></defs><sodipodi:namedview
   inkscape:window-height="700"
   inkscape:window-width="727"
   inkscape:pageshadow="2"
   inkscape:pageopacity="0.0"
   guidetolerance="10.0"
   gridtolerance="10.0"
   objecttolerance="10.0"
   borderopacity="1.0"
   bordercolor="#666666"
   pagecolor="#ffffff"
   id="base"
   showgrid="false"
   inkscape:zoom="0.93897473"
   inkscape:cx="168.61768"
   inkscape:cy="47.747459"
   inkscape:window-x="0"
   inkscape:window-y="37"
   inkscape:current-layer="Layer_1" />

<path
   d="M 15.188714,1.4860426 C 8.0546392,1.4860426 2.2621214,7.3036363 2.2621214,14.437711 L 2.2621214,107.54429 C 2.2621214,114.66582 8.0546392,120.47088 15.188714,120.47088 L 108.29529,120.47088 C 115.42936,120.47088 121.23442,114.66582 121.23442,107.54429 L 121.23442,14.437711 C 121.23442,7.3036363 115.42936,1.4860426 108.29529,1.4860426 L 15.188714,1.4860426 z"
   style="fill:#ffffff;fill-opacity:1;fill-rule:nonzero;stroke:none"
   id="path10123" /><path
   d="M 15.188714,-1.0090029 C 6.6754683,-1.0090029 -0.258,5.9370033 -0.258,14.437711 L -0.258,107.54429 C -0.258,116.05753 6.6754683,122.991 15.188714,122.991 L 108.29529,122.991 C 116.80853,122.991 123.742,116.05753 123.742,107.54429 L 123.742,14.437711 C 123.742,5.9370033 116.80853,-1.0090029 108.29529,-1.0090029 L 15.188714,-1.0090029 z"
   style="fill:#000000;fill-opacity:1;fill-rule:nonzero;stroke:none"
   id="path10125" /><path
   d="M 54.118948,25.207782 C 49.642911,25.207782 46.019453,28.793627 46.019453,33.194436 C 46.019453,37.632858 49.642911,41.206165 54.118948,41.206165 C 58.582446,41.206165 62.205904,37.632858 62.205904,33.194436 C 62.205904,28.793627 58.582446,25.207782 54.118948,25.207782"
   style="fill:#ffffff;fill-opacity:1;fill-rule:nonzero;stroke:none"
   id="path10127" /><path
   d="M 95.180627,41.005558 C 94.867179,39.287864 93.462932,38.309906 93.375167,38.234678 L 45.806308,6.889885 L 41.392962,13.284223 C 40.565459,14.56309 40.929059,16.230633 42.18285,17.058136 C 43.44918,17.885639 45.129261,17.547115 45.944226,16.268247 L 48.527037,12.5821 L 87.15636,38.071686 L 55.510657,43.776438 C 53.266369,44.140038 51.648978,46.396863 52.150495,48.57846 L 59.033811,75.221535 L 36.76647,108.62255 C 35.424913,110.89191 36.239878,113.83832 38.534316,115.12973 C 40.866369,116.45875 43.81278,115.64378 45.154337,113.37442 C 45.154337,113.37442 68.387098,78.431242 68.474863,78.205559 C 68.474863,78.205559 69.678503,83.057733 69.678503,83.082809 L 66.180424,109.29959 C 65.741597,111.89494 67.521981,114.35237 70.154944,114.7912 C 72.787907,115.23003 75.282952,113.46218 75.721779,110.86683 L 79.320162,83.910312 C 79.433003,83.220726 79.295086,81.703638 79.132093,81.051666 L 71.195591,49.48119 L 91.858079,45.757429 C 94.07729,45.368753 95.569303,43.237308 95.180627,41.005558"
   style="fill:#ffffff;fill-opacity:1;fill-rule:nonzero;stroke:none"
   id="path10129" /></svg>

<svg xmlns="http://www.w3.org/2000/svg" width="123.55" height="123.54" viewBox="-0.258 -0.548 123.547 123.539" enable-background="new -0.258 -0.548 123.547 123.539"><path d="m15.189 1.486c-7.134 0-12.927 5.818-12.927 12.952v93.11c0 7.122 5.793 12.927 12.927 12.927h93.11c7.134 0 12.939-5.805 12.939-12.927v-93.11c0-7.134-5.805-12.952-12.939-12.952h-93.11" fill="#fff"/><path d="m15.189-1.01c-8.513 0-15.447 6.946-15.447 15.447v93.11c0 8.513 6.933 15.447 15.447 15.447h93.11c8.513 0 15.447-6.933 15.447-15.447v-93.11c0-8.501-6.933-15.447-15.447-15.447h-93.11"/><g fill="#fff"><path d="m54.12 25.21c-4.476 0-8.099 3.586-8.099 7.987 0 4.438 3.623 8.01 8.099 8.01 4.463 0 8.09-3.573 8.09-8.01 0-4.401-3.623-7.987-8.09-7.987"/><path d="m95.18 41.01c-.313-1.718-1.718-2.696-1.805-2.771l-47.569-31.345-4.413 6.394c-.828 1.279-.464 2.946.79 3.774 1.266.828 2.946.489 3.761-.79l2.583-3.686 38.629 25.49-31.646 5.705c-2.244.364-3.862 2.62-3.36 4.802l6.883 26.643-22.267 33.401c-1.342 2.269-.527 5.216 1.768 6.507 2.332 1.329 5.278.514 6.62-1.755 0 0 23.23-34.943 23.321-35.17 0 0 1.204 4.852 1.204 4.877l-3.498 26.22c-.439 2.595 1.342 5.05 3.975 5.492 2.633.439 5.128-1.329 5.567-3.924l3.598-26.957c.113-.69-.025-2.207-.188-2.859l-7.937-31.57 20.662-3.724c2.219-.389 3.711-2.52 3.323-4.752"/></g></svg>
